X:2070
T:Untitled 
C:Traditional
O:Isle of Man
Z:Clague collection
B:Kiaull Vannin #70 
M:3/4 
L:1/4
K:G 
Gc B|d2 e|(dB) A|G3 |Gc B|d2 B|A3|
AB c|d2 e|(dB) A|(GE2)|DD G/A/|B2 A|G3||

